X: 21492
T: Kick The World Before Me
R: slip jig
M: 9/8
K: Adorian
|:B|c2 A BGE EGE|c2 A BAG A2 B|c2 A BGE EGE|cde d>cB A2:|
|:B|c2 c cec BdB|c2 c cec d2 B|c2 c cec B/c/dB|c>BA BGE A2:|

